public/formular-icons/greece/upper-sigma.svg

<svg style="vertical-align:0" xmlns="http://www.w3.org/2000/svg" width="1.633ex" height="1.545ex" viewBox="0 -683 722 683" xmlns:xlink="http://www.w3.org/1999/xlink"><defs><path id="a" d="M666 247q-2-3-14-121T638 4V0H95Q59 0 57 5v1q-3 6 0 11l16 19 48 54q32 36 61 69l123 140L56 644l-1 14q0 19 5 23 3 2 291 2h287v-4q2-5 14-115t14-117v-4h-40v4q-8 58-22 96t-45 62q-30 21-81 26t-145 6H189l104-143q21-29 52-72 55-76 55-82 0-2-1-3L154 57q253 0 274 1 48 2 80 10t43 15 24 20q20 22 33 59t16 63l2 26h40v-4Z"/></defs><g stroke="currentColor" fill="currentColor" stroke-width="0"><use data-c="3A3" xlink:href="#a" transform="scale(1 -1)"/></g></svg>

<svg style="vertical-align: 0" xmlns="http://www.w3.org/2000/svg" width="1.633ex" height="1.545ex" role="img" focusable="false" viewBox="0 -683 722 683" xmlns:xlink="http://www.w3.org/1999/xlink"><defs><path id="MJX-122-TEX-N-3A3" d="M666 247Q664 244 652 126T638 4V0H351Q131 0 95 0T57 5V6Q54 12 57 17L73 36Q89 54 121 90T182 159L305 299L56 644L55 658Q55 677 60 681Q63 683 351 683H638V679Q640 674 652 564T666 447V443H626V447Q618 505 604 543T559 605Q529 626 478 631T333 637H294H189L293 494Q314 465 345 422Q400 346 400 340Q400 338 399 337L154 57Q407 57 428 58Q476 60 508 68T551 83T575 103Q595 125 608 162T624 225L626 251H666V247Z"></path></defs><g stroke="currentColor" fill="currentColor" stroke-width="0" transform="scale(1,-1)"><g data-mml-node="math"><g data-mml-node="mi"><use data-c="3A3" xlink:href="#MJX-122-TEX-N-3A3"></use></g></g></g></svg>
